X: 11143
T: Dulaman Na Binne Bui
R: strathspey
M: 4/4
K: Dmajor
A2 B>c d2 A>F|G2 E<D E2 G>B|A2 B>c d2 F>G|A2 G<E D2 D2-|D2||
K: DMix
A2 E>D C>D E2|A>GE>D G2 c>B|A>GE>D C>D E2|A2 c<E D2 D2-|D2||

